X: 5
T:Kelly the Boy from Killane
M:4/4
L:1/8
Q:120
R:March
K:D
DF|"D"A2AA"G"d2dB|"D"A2FD"Bm"B,2DE|
"D"F2EF"A" A<G E>C|"D"D4-D2:|
AA|"G"B2GBd2cB|"D"A2dBA2FA|"G"B2GBd2c>B|"A"A4-A2DF|
"D"A2AA"G"d2dB|"D"A2FD"Bm"B,2DE|"D"F<E-E F "A"A<G E>C|"D"D4-D2|
